Obsidian-SemiLight/actions/22s/generalise.svg

<svg viewBox="0 0 22 22" xmlns="http://www.w3.org/2000/svg"><g fill="#4d4d4d"><path d="m10.5 3-3.5 7h1 .1171875 1.8828125v9h1v-9h1.882812.117188 1zm0 2.2363281 1.882812 3.7636719h-3.7656245z"/><path d="m10.5 5.2363281-1.8828125 3.7636719h3.7656245z" fill-opacity=".5"/></g></svg>

<svg xmlns="http://www.w3.org/2000/svg" viewBox="0 0 22 22">
  <defs id="defs3051">
    <style type="text/css" id="current-color-scheme">
      .ColorScheme-Text {
        color:#4d4d4d;
      }
      </style>
  </defs>
 <path 
     style="fill:currentColor;fill-opacity:1;stroke:none" 
     d="M 10.5 3 L 7 10 L 8 10 L 8.1171875 10 L 10 10 L 10 19 L 11 19 L 11 10 L 12.882812 10 L 13 10 L 14 10 L 10.5 3 z M 10.5 5.2363281 L 12.382812 9 L 8.6171875 9 L 10.5 5.2363281 z "
     class="ColorScheme-Text"
     />
 <path 
     style="fill:currentColor;fill-opacity:0.5;stroke:none" 
     d="M 10.5 5.2363281 L 8.6171875 9 L 12.382812 9 L 10.5 5.2363281 z "
     class="ColorScheme-Text"
     />
</svg>
